assets/mistralai/mono.svg

<svg viewBox="0 0 24 24" xmlns="http://www.w3.org/2000/svg"><path d="m17.143 3.429v3.428h-3.429v3.429h-3.428v-3.429h-3.429v-3.427h-3.427v13.714h-3.43v3.428h10.286v-3.428h-3.429v-3.429h3.429v3.429h3.429v-3.429h3.428v3.429h-3.428v3.428h10.285v-3.428h-3.43v-13.715z"/></svg>

<svg xmlns="http://www.w3.org/2000/svg" viewBox="0 0 24 24"><path d="M17.143 3.429v3.428h-3.429v3.429h-3.428V6.857H6.857V3.43H3.43v13.714H0v3.428h10.286v-3.428H6.857v-3.429h3.429v3.429h3.429v-3.429h3.428v3.429h-3.428v3.428H24v-3.428h-3.43V3.429z"/></svg>
